X:406
T:Marriage Promenade …[?],The. RH.406
R:air
S:Rev.R.Harrison’s MS,c1815,Cumbria
O:England
A:Temple Sowerby,Cumbria
Z:vmp.Simon Wilson. Review PJH, 2008.
M:2/4
L:1/8
Q:1/4=120
K:D
A|Addf|ecdB|ceef|g2fe|addf|cead|Bfe^G|A3||!
A/B/|.c(c/d/) .e(ef)|g2fe|adcd|(f2e) A/B/|\
>c(c/d/) .e(e/f/)|g2fe|aab^g|a3|]

